packages/calcite-ui-icons/icons/link-chart-collapse-ends-16.svg

<?xml version="1.0" encoding="UTF-8"?><svg id="icons" xmlns="http://www.w3.org/2000/svg" viewBox="0 0 16 16"><defs><style>.cls-1{fill:none;}</style></defs><path d="M11.5,0c-2.31024,0-4.19702,1.75616-4.44946,4H2v1h5.05054c.25244,2.24384,2.13922,4,4.44946,4,2.48145,0,4.5-2.01855,4.5-4.5S13.98145,0,11.5,0ZM11.5,8c-1.75848,0-3.20422-1.30835-3.44946-3h1c.23224,1.13995,1.24182,2,2.44946,2,1.37891,0,2.5-1.12109,2.5-2.5s-1.12109-2.5-2.5-2.5c-1.20764,0-2.21722.86005-2.44946,2h-1c.24524-1.69165,1.69098-3,3.44946-3,1.92969,0,3.5,1.57031,3.5,3.5s-1.57031,3.5-3.5,3.5ZM10,5v-1c0-.55231.44769-1,1-1h1c.55231,0,1,.44769,1,1v1c0,.55225-.44769,1-1,1h-1c-.55231,0-1-.44775-1-1ZM4.20715,12.5l2.27496,2.27502-.70715.70709-2.27496-2.27502-2.27502,2.27496-.70715-.70709,2.27502-2.27496-2.27496-2.27502.70715-.70715,2.27496,2.27502,2.27502-2.27496.70715.70715-2.27502,2.27496Z"/><rect class="cls-1" width="16" height="16"/></svg>

<svg xmlns="http://www.w3.org/2000/svg" viewBox="0 0 16 16"><path d="M11.5 0C9.19 0 7.303 1.756 7.05 4H2v1h5.05c.253 2.244 2.14 4 4.45 4C13.981 9 16 6.981 16 4.5S13.981 0 11.5 0zm0 8C9.742 8 8.296 6.692 8.05 5h1c.233 1.14 1.242 2 2.45 2C12.879 7 14 5.879 14 4.5S12.879 2 11.5 2c-1.208 0-2.217.86-2.45 2h-1c.246-1.692 1.692-3 3.45-3C13.43 1 15 2.57 15 4.5S13.43 8 11.5 8zM10 5V4a1 1 0 0 1 1-1h1a1 1 0 0 1 1 1v1a1 1 0 0 1-1 1h-1a1 1 0 0 1-1-1zm-5.793 7.5l2.275 2.275-.707.707L3.5 13.207l-2.275 2.275-.707-.707L2.793 12.5.518 10.225l.707-.707L3.5 11.793l2.275-2.275.707.707L4.207 12.5z"/><path fill="none" d="M0 0h16v16H0z"/></svg>
